shader 
Velvet(
    float rim_width = 0.2,
    float t = 1.0,
    color basecolor = color(1,1,1),
    color rimcolor = color(1,0,0),
    color testcolor = color(1,0,0),
    output color resultRGB = 0,
    output float resultF = 0
    )
{
vector i = normalize(I);
vector n = normalize(N);
float  d = fabs(dot(-i, n)) + (noise(P) * t);
d = smoothstep(rim_width, 1.0, d);
resultRGB = mix(rimcolor, basecolor, d);
resultF = d - 0.5;
}